src/24/actions/node-type-cusp.svg

<svg xmlns="http://www.w3.org/2000/svg" viewBox="0 0 24 24">
  <defs id="defs3051">
    <style type="text/css" id="current-color-scheme">
      .ColorScheme-Text {
        color:#5d656b;
      }
      .ColorScheme-Highlight {
        color:#3daee9;
      }
      </style>
  </defs>
 <path 
     style="fill:currentColor;fill-opacity:1;stroke:none" 
     d="M 2.0019531 4 L 2 4.0019531 L 2 4.9980469 L 2.0019531 5 L 2.9980469 5 L 3 4.9980469 L 3 5.0039062 C 7.31303 5.7540163 10.624504 11.166799 10.964844 17.792969 L 11.894531 16.863281 C 11.271501 10.099891 7.64491 4.70025 3 4 L 2.9980469 4 L 2.0019531 4 z M 11 4 L 11 7 L 12 7 L 12 8 L 13 8 L 13 7 L 14 7 L 14 4 L 11 4 z M 21 4 C 20.995 11.06463 17.606408 16.999241 13.111328 17.869141 L 13.414062 18.171875 L 13 18.585938 L 13 18.925781 C 18.11011 18.155401 22.00033 11.70378 22 4 L 21 4 z M 12 5 L 13 5 L 13 6 L 12 6 L 12 5 z M 12 9 L 12 10 L 13 10 L 13 9 L 12 9 z M 12 11 L 12 12 L 13 12 L 13 11 L 12 11 z M 19 17 L 19 18 L 18 18 L 18 19 L 19 19 L 19 20 L 22 20 L 22 17 L 19 17 z M 16 18 L 16 19 L 17 19 L 17 18 L 16 18 z M 20 18 L 21 18 L 21 19 L 20 19 L 20 18 z M 10.990234 18.576172 C 10.992234 18.688102 11 18.797646 11 18.910156 L 11.324219 18.910156 L 10.990234 18.576172 z "
     class="ColorScheme-Text"
     />
 <path 
     style="fill:currentColor;fill-opacity:1;stroke:none" 
     d="M 12 15.34375 L 9.171875 18.171875 L 12 21 L 14.828125 18.171875 L 12 15.34375 z M 12 16.757812 L 13.414062 18.171875 L 12 19.585938 L 10.585938 18.171875 L 12 16.757812 z "
     class="ColorScheme-Highlight"
     />
</svg>

<svg xmlns="http://www.w3.org/2000/svg" viewBox="0 0 24 24"><path d="M2.002 4L2 4.002v.996L2.002 5h.996L3 4.998v.006c4.313.75 7.625 6.163 7.965 12.789l.93-.93C11.272 10.1 7.645 4.7 3 4h-.998zM11 4v3h1v1h1V7h1V4h-3zm10 0c-.005 7.065-3.394 13-7.889 13.87l.303.302-.414.414v.34c5.11-.77 9-7.222 9-14.926h-1zm-9 1h1v1h-1V5zm0 4v1h1V9h-1zm0 2v1h1v-1h-1zm7 6v1h-1v1h1v1h3v-3h-3zm-3 1v1h1v-1h-1zm4 0h1v1h-1v-1zm-9.01.576c.002.112.01.222.01.334h.324l-.334-.334z" fill="currentColor" color="#5d656b"/><path d="M12 15.344l-2.828 2.828L12 21l2.828-2.828L12 15.344zm0 1.414l1.414 1.414L12 19.586l-1.414-1.414L12 16.758z" fill="currentColor" color="#3daee9"/></svg>
